brandFactory_export/1.Light/Visa tarjeta credito _1Light.svg

<?xml version="1.0" encoding="UTF-8"?>
<svg width="24px" height="24px" viewBox="0 0 24 24" version="1.1" xmlns="http://www.w3.org/2000/svg" xmlns:xlink="http://www.w3.org/1999/xlink">
    <title>1.Light/Visa tarjeta credito _1Light</title>
    <g id="Symbols" stroke="none" stroke-width="1" fill="none" fill-rule="evenodd">
        <g id="1.Light/Visa-tarjeta-credito-_1Light" fill="#5CB615" fill-rule="nonzero">
            <path d="M22.097479,19.7579832 C22.3831933,19.7579832 22.6151261,19.5294118 22.6184874,19.2436975 L22.6184874,11.8823529 L0.998319328,11.8823529 L0.998319328,19.2403361 C0.998319328,19.5260504 1.2302521,19.7546218 1.51932773,19.7546218 L22.097479,19.7546218 L22.097479,19.7579832 Z M1.51596639,4.97478992 C1.2302521,4.97478992 0.998319328,5.20336134 0.994957983,5.48907563 L0.994957983,7.20672269 L22.6151261,7.20672269 L22.6151261,5.48907563 C22.6151261,5.20336134 22.3798319,4.97142857 22.0941176,4.97478992 L1.51596639,4.97478992 Z M0.998319328,10.9042017 L22.6218487,10.9042017 L22.6218487,8.18487395 L0.998319328,8.18487395 L0.998319328,10.9042017 Z M23.6235294,7.69747899 L23.6235294,11.394958 C23.6235294,11.4319328 23.610084,11.4621849 23.6033613,11.492437 L23.6033613,19.2403361 C23.6033613,20.0638655 22.9277311,20.7327731 22.1008403,20.7327731 L1.51596639,20.7327731 C0.685714286,20.7327731 0.0134453782,20.0638655 0.0134453782,19.2403361 L0.0134453782,11.4554622 C0.0100840336,11.4352941 0,11.4151261 0,11.394958 L0,7.69747899 C0,7.67731092 0.0100840336,7.65714286 0.0134453782,7.63697479 L0.0134453782,5.49243697 C0.0134453782,4.66890756 0.68907563,4 1.51596639,4 L22.097479,4 C22.9277311,4 23.6,4.66890756 23.6,5.49243697 L23.6,7.6 C23.610084,7.6302521 23.6235294,7.66386555 23.6235294,7.69747899 Z M18.7596639,17.4588235 C19.3512605,17.4487395 20.3462185,17.2168067 20.3462185,15.8016807 C20.3462185,14.3831933 19.3445378,14.1445378 18.7462185,14.1310924 L18.5546218,14.1277311 C18.3798319,14.1310924 17.8487395,14.1848739 17.4588235,14.5344538 C17.6235294,14.8806723 17.7243697,15.297479 17.7243697,15.8016807 C17.7243697,16.2991597 17.6268908,16.7092437 17.4689076,17.0521008 C17.8621849,17.3983193 18.4,17.4588235 18.5747899,17.4621849 L18.7596639,17.4588235 L18.7596639,17.4588235 Z M15.1495798,17.4588235 C15.7411765,17.4487395 16.7361345,17.2168067 16.7361345,15.8016807 C16.7361345,14.3831933 15.7344538,14.1445378 15.1361345,14.1310924 L14.9445378,14.1277311 C14.3596639,14.1344538 13.3781513,14.3563025 13.3781513,15.7848739 C13.3781513,17.2201681 14.3731092,17.4487395 14.9647059,17.4588235 L15.1495798,17.4588235 L15.1495798,17.4588235 Z M18.7663866,13.1529412 C19.9529412,13.1831933 21.3310924,13.892437 21.3310924,15.7983193 C21.3310924,17.707563 19.9563025,18.410084 18.7764706,18.4336134 L18.5613445,18.4336134 C18.2218487,18.4268908 17.4722689,18.3462185 16.8605042,17.8420168 C16.3731092,18.2453782 15.7478992,18.4235294 15.1663866,18.4336134 L14.9512605,18.4336134 C13.7714286,18.4134454 12.3932773,17.7109244 12.3932773,15.7848739 C12.3932773,13.8554622 13.7647059,13.1596639 14.9378151,13.1495798 L15.1563025,13.1529412 C15.7344538,13.1663866 16.3563025,13.3478992 16.8436975,13.7445378 C17.4521008,13.2336134 18.205042,13.1529412 18.5478992,13.1495798 L18.7663866,13.1529412 L18.7663866,13.1529412 Z" id="Visa-tarjeta-credito-_1Light"></path>
        </g>
    </g>
</svg>

<svg width="24" height="24" viewBox="0 0 24 24" xmlns="http://www.w3.org/2000/svg"><path d="M22.097 19.758a.52.52 0 00.521-.514v-7.362H.998v7.358c0 .286.232.515.521.515h20.578v.003zM1.516 4.975a.52.52 0 00-.521.514v1.718h21.62V5.489a.516.516 0 00-.52-.514H1.515zm-.518 5.93h21.624v-2.72H.998v2.72zm22.626-3.208v3.698c0 .037-.014.067-.02.097v7.748a1.5 1.5 0 01-1.503 1.493H1.516c-.83 0-1.503-.67-1.503-1.493v-7.785c-.003-.02-.013-.04-.013-.06V7.697c0-.02.01-.04.013-.06V5.492A1.5 1.5 0 011.516 4h20.581c.83 0 1.503.669 1.503 1.492V7.6c.01.03.024.064.024.097zM18.76 17.46c.591-.01 1.586-.242 1.586-1.657 0-1.419-1.001-1.657-1.6-1.67l-.191-.004c-.175.003-.706.057-1.096.406.165.347.265.763.265 1.268 0 .497-.097.907-.255 1.25.393.346.931.407 1.106.41l.185-.003zm-3.61 0c.591-.01 1.586-.242 1.586-1.657 0-1.419-1.002-1.657-1.6-1.67l-.191-.004c-.585.006-1.567.228-1.567 1.657 0 1.435.995 1.664 1.587 1.674h.185zm3.616-4.306c1.187.03 2.565.74 2.565 2.645 0 1.91-1.375 2.612-2.555 2.636h-.215c-.34-.007-1.089-.088-1.7-.592-.488.403-1.113.582-1.695.592h-.215c-1.18-.02-2.558-.723-2.558-2.65 0-1.929 1.372-2.624 2.545-2.634l.218.003c.578.013 1.2.195 1.688.592.608-.511 1.361-.592 1.704-.595l.218.003z" fill="#5CB615" fill-rule="nonzero"/></svg>
